apps/picsa-tools/manual-tool/src/assets/svgs/resourceAllocation.svg

<svg viewBox="0 0 36 37">
  <path
    d="M 24,4.66 C 20,3.26 16,1.86 12,0.46 8,1.8066667 4,3.1533333 0,4.5 c 0,10.8 0,21.6 0,32.4 4,-1.553333 8,-3.106667 12,-4.66 4,1.4 8,2.8 12,4.2 4,-1.346667 8,-2.693333 12,-4.04 C 36,21.6 36,10.8 36,0 32,1.5533333 28,3.1066667 24,4.66 Z m 0,27.58 c -4,-1.406667 -8,-2.813333 -12,-4.22 0,-7.78 0,-15.56 0,-23.34 4,1.4066667 8,2.8133333 12,4.22 0,7.78 0,15.56 0,23.34 z" />
</svg>

<svg width="36" height="37" viewBox="0 0 36 37" fill="none" xmlns="http://www.w3.org/2000/svg">
<path d="M24 4.66L12 0.46L0 4.5V36.9L12 32.24L24 36.44L36 32.4V0L24 4.66ZM24 32.24L12 28.02V4.68L24 8.9V32.24Z" fill="#AA1344"/>
</svg>
